X: 106
T:Haughs of Cromdale
K:Em
M:C
L:1/8
R:Strathspey
e|"Em"B<EE>F "Bm"B>AF<A|"Em"B<EE>F "D"D>EF>A|
"Em"B<EE>F "Bm"B>AF<A|"Bm"{c}d>B "D"A>F ~"Em"E2-E:||!
F|"Bm"De (d/2^c/2B/2A/2){c}d2||"D"E<AA>B (A>F) A2|
"Em"B<ee>f {f}(g>f)(e>d)|"Gm"B>d "D"(B/2A/2G/2F/2) "Em"F2-F:||
% <A name="D1X107">
